X: 42915
T: Will You Come In?
R: slip jig
M: 9/8
K: Dmajor
|:A2F FEF D2A|B2A B2A Bcd|A2F FEF G2A|1 B2A A2F AdB:|2 B2F A2F ABc||
|:dcd f2d c2A|~B3 B2A B2c|dcd f2d c2A|~B2A B2F ABc|dcd a2d c2A|~B3 B2A B2c|
d2b a2f d2A|ABA A2F AdB||

